packages/core/src/svgs/tokens/mono/SUKU.svg

<svg width="24" height="24" viewBox="0 0 24 24" fill="none" xmlns="http://www.w3.org/2000/svg">
<path d="M15.0137 17.7329C15.0942 17.4193 15.1347 17.0962 15.1326 16.7709C15.1115 16.2266 14.9349 15.6996 14.6237 15.2525C13.8684 14.1388 12.4968 13.6287 11.319 13.1578C11.0525 13.0551 10.7872 12.9493 10.5232 12.8403L9.3585 13.6914C8.83216 14.0761 8.30582 14.4804 7.60425 15.0177C6.82004 15.6156 5.93952 16.4177 5.61689 17.3682C5.43131 17.8964 5.37659 18.4617 5.45742 19.0156C5.53759 19.5681 5.75111 20.093 6.07952 20.5446L6.12057 20.513L6.07636 20.5446C6.39216 21.0035 6.81425 21.3761 7.30531 21.6298C7.7952 21.8833 8.34067 22.0103 8.89209 21.9992C9.88264 21.9904 10.9116 21.4003 11.7169 20.8308C12.734 20.1079 13.745 19.3764 14.7499 18.6367C14.8089 18.4909 14.8579 18.3408 14.8973 18.1883C14.9384 18.0382 14.9816 17.8766 15.0184 17.7214" fill="white" fill-opacity="0.6"/>
<path d="M15.0134 17.7328C15.0938 17.4192 15.1344 17.0961 15.1323 16.7707C15.1111 16.2265 14.9345 15.6995 14.6234 15.2524C13.8681 14.1386 12.4965 13.6286 11.3186 13.1577C10.9039 12.9956 10.4876 12.8339 10.0812 12.6486C8.9561 12.1448 7.92263 11.4569 7.02338 10.6135C4.2913 7.98715 5.86181 3.4956 8.98336 2.06245C9.46021 1.84402 9.437 2.24034 9.33974 2.60665C8.8802 4.35033 10.3492 6.26083 11.7228 7.00294C13.5107 7.97135 15.467 8.49925 16.9965 9.92977C18.3712 11.214 19.0144 13.4313 18.2565 15.2192C17.8544 16.1692 17.1128 16.9176 16.3017 17.5103L14.7502 18.6444C14.8092 18.4981 14.858 18.3481 14.8976 18.1955C14.9386 18.0455 14.9817 17.8845 15.0185 17.7286" fill="white"/>
<path d="M15.0136 17.7329C15.0941 17.4193 15.1346 17.0962 15.1325 16.7709C15.1114 16.2266 14.9348 15.6996 14.6236 15.2525C13.8683 14.1388 12.4967 13.6287 11.3189 13.1578C11.0519 13.0548 10.7861 12.949 10.5215 12.8403L9.35986 13.6904C10.5641 14.1988 11.871 14.6914 12.8736 15.5783C13.7772 16.3787 14.3762 17.4819 14.7525 18.6383C14.8114 18.4921 14.8606 18.3423 14.8999 18.1898C14.9414 18.0398 14.9841 17.8782 15.021 17.7225" fill="white" fill-opacity="0.4"/>
</svg>

<svg xmlns="http://www.w3.org/2000/svg" width="24" height="24" fill="none" viewBox="0 0 24 24">
    <path fill="#fff" fill-opacity=".6" d="M15.014 17.733a3.8 3.8 0 0 0 .119-.962 2.85 2.85 0 0 0-.51-1.519c-.755-1.113-2.126-1.623-3.304-2.094a36 36 0 0 1-.796-.318l-1.165.851c-.526.385-1.052.79-1.754 1.327-.784.598-1.664 1.4-1.987 2.35a3.46 3.46 0 0 0 .463 3.177l.04-.032-.044.032c.316.458.738.831 1.23 1.085.49.253 1.035.38 1.586.37.99-.01 2.02-.6 2.825-1.17a225 225 0 0 0 3.033-2.193 4 4 0 0 0 .147-.449c.041-.15.085-.311.121-.467"/>
    <path fill="#fff" d="M15.013 17.733q.12-.473.12-.962a2.85 2.85 0 0 0-.51-1.519c-.755-1.113-2.126-1.623-3.304-2.094-.415-.162-.831-.324-1.238-.51a11.1 11.1 0 0 1-3.058-2.034c-2.732-2.627-1.161-7.118 1.96-8.552.477-.218.454.178.357.545-.46 1.743 1.01 3.654 2.383 4.396 1.788.968 3.744 1.496 5.274 2.927 1.374 1.284 2.017 3.501 1.26 5.29-.403.95-1.144 1.698-1.955 2.29l-1.552 1.134q.089-.22.148-.448c.04-.15.084-.312.12-.467"/>
    <path fill="#fff" fill-opacity=".4" d="M15.014 17.733a3.8 3.8 0 0 0 .119-.962 2.85 2.85 0 0 0-.51-1.519c-.755-1.113-2.126-1.623-3.304-2.094a40 40 0 0 1-.798-.318l-1.161.85c1.204.509 2.511 1.001 3.514 1.888.903.8 1.502 1.904 1.878 3.06q.09-.22.148-.448c.041-.15.084-.312.121-.468"/>
</svg>
